icons/folder_type_db_opened.svg

<svg xmlns="http://www.w3.org/2000/svg" viewBox="0 0 32 32"><path d="M27.4 5.5h-9.2l-2.1 4.2H4.3v16.8h25.2v-21Zm0 18.7H6.6V11.8h20.8Zm0-14.5h-8.2l1-2.1h7.1v2.1Z" style="fill:#dcb67a"/><path d="M25.7 13.7H.5l3.8 12.8h25.2l-3.8-12.8z" style="fill:#dcb67a"/><path d="M17.822 19.942a15.869 15.869 0 0 0 5.578.895 15.869 15.869 0 0 0 5.578-.9c1.4-.545 1.894-1.151 1.894-1.5v-2.662a7.768 7.768 0 0 1-1.563.807 16.72 16.72 0 0 1-5.909.977 16.77 16.77 0 0 1-5.909-.975 7.71 7.71 0 0 1-1.563-.809v2.663c0 .355.497.962 1.894 1.504ZM17.822 24.971a11.708 11.708 0 0 0 1.95.556 19.567 19.567 0 0 0 7.257 0 11.711 11.711 0 0 0 1.95-.556c1.4-.545 1.894-1.151 1.894-1.5v-2.542a8.029 8.029 0 0 1-1.269.619 17.617 17.617 0 0 1-6.2 1.007 17.618 17.618 0 0 1-6.2-1.011 8.122 8.122 0 0 1-1.269-.619v2.545c-.007.35.49.953 1.887 1.501Z" style="fill:#ffda44"/><path d="M23.4 31c4.125 0 7.472-1.308 7.472-2.921v-2.127a7.875 7.875 0 0 1-1.151.571l-.118.047a17.615 17.615 0 0 1-6.2 1.013 17.566 17.566 0 0 1-6.2-1.013l-.118-.047a7.875 7.875 0 0 1-1.151-.571v2.128C15.928 29.692 19.275 31 23.4 31Z" style="fill:#ffda44"/><ellipse cx="23.4" cy="12.921" rx="7.472" ry="2.921" style="fill:#ffda44"/></svg>

<svg xmlns="http://www.w3.org/2000/svg" viewBox="0 0 32 32"><title>folder_type_db_opened</title><path d="M27.4,5.5H18.2L16.1,9.7H4.3V26.5H29.5V5.5Zm0,18.7H6.6V11.8H27.4Zm0-14.5H19.2l1-2.1h7.1V9.7Z" style="fill:#dcb67a"/><polygon points="25.7 13.7 0.5 13.7 4.3 26.5 29.5 26.5 25.7 13.7" style="fill:#dcb67a"/><path d="M17.822,19.942a15.869,15.869,0,0,0,5.578.895,15.869,15.869,0,0,0,5.578-.9c1.4-.545,1.894-1.151,1.894-1.5V15.775a7.768,7.768,0,0,1-1.563.807,16.72,16.72,0,0,1-5.909.977,16.77,16.77,0,0,1-5.909-.975,7.71,7.71,0,0,1-1.563-.809v2.663C15.928,18.793,16.425,19.4,17.822,19.942Z" style="fill:#ffda44"/><path d="M17.822,24.971a11.708,11.708,0,0,0,1.95.556,19.567,19.567,0,0,0,7.257,0,11.711,11.711,0,0,0,1.95-.556c1.4-.545,1.894-1.151,1.894-1.5V20.929a8.029,8.029,0,0,1-1.269.619,17.617,17.617,0,0,1-6.2,1.007,17.618,17.618,0,0,1-6.2-1.011,8.122,8.122,0,0,1-1.269-.619V23.47C15.928,23.82,16.425,24.423,17.822,24.971Z" style="fill:#ffda44"/><path d="M23.4,31c4.125,0,7.472-1.308,7.472-2.921V25.952a7.875,7.875,0,0,1-1.151.571l-.118.047a17.615,17.615,0,0,1-6.2,1.013,17.566,17.566,0,0,1-6.2-1.013c-.04-.015-.079-.032-.118-.047a7.875,7.875,0,0,1-1.151-.571V28.08C15.928,29.692,19.275,31,23.4,31Z" style="fill:#ffda44"/><ellipse cx="23.4" cy="12.921" rx="7.472" ry="2.921" style="fill:#ffda44"/></svg>
